public/assets/images/icon-advanced.svg

<svg width="40" height="40" viewBox="0 0 40 40" fill="none" xmlns="http://www.w3.org/2000/svg">
<path d="M20 40C31.0457 40 40 31.0457 40 20C40 8.9543 31.0457 0 20 0C8.9543 0 0 8.9543 0 20C0 31.0457 8.9543 40 20 40Z" fill="#8899FF"/>
<path d="M25.057 15H14.944C12.212 15 10 17.03 10 19.885C10 22.742 12.212 24.821 14.944 24.821H25.057C27.79 24.821 30 22.741 30 19.885C30 17.029 27.79 15 25.057 15ZM17.5 20.388C17.5 20.508 17.392 20.625 17.266 20.625H15.714V22.194C15.714 22.32 15.576 22.411 15.455 22.411H14.5C14.382 22.411 14.287 22.325 14.287 22.208V20.625H12.718C12.592 20.625 12.501 20.486 12.501 20.365V19.409C12.501 19.292 12.587 19.196 12.703 19.196H14.287V17.642C14.287 17.517 14.369 17.411 14.49 17.411H15.479C15.599 17.411 15.715 17.519 15.715 17.645V19.196H17.27C17.395 19.196 17.501 19.279 17.501 19.4L17.5 20.388ZM22.847 20.781C22.7338 20.7819 22.6215 20.7605 22.5166 20.7181C22.4117 20.6756 22.3161 20.6129 22.2354 20.5335C22.1547 20.4541 22.0905 20.3596 22.0463 20.2553C22.0021 20.1511 21.9789 20.0392 21.978 19.926C21.978 19.454 22.368 19.07 22.847 19.07C23.328 19.07 23.717 19.454 23.717 19.926C23.717 20.397 23.328 20.781 22.847 20.781ZM24.747 22.647C24.6339 22.6483 24.5216 22.6273 24.4167 22.5852C24.3117 22.5431 24.2161 22.4806 24.1352 22.4015C24.0544 22.3224 23.99 22.228 23.9457 22.124C23.9014 22.0199 23.878 21.9081 23.877 21.795C23.8777 21.6816 23.9007 21.5695 23.9448 21.4651C23.989 21.3607 24.0533 21.266 24.1342 21.1866C24.215 21.1071 24.3108 21.0444 24.416 21.0021C24.5211 20.9598 24.6336 20.9387 24.747 20.94C25.227 20.94 25.617 21.32 25.617 21.795C25.616 21.9081 25.5926 22.0199 25.5483 22.124C25.504 22.228 25.4396 22.3224 25.3588 22.4015C25.2779 22.4806 25.1823 22.5431 25.0773 22.5852C24.9724 22.6273 24.8601 22.6483 24.747 22.647ZM24.747 18.911C24.6338 18.9121 24.5215 18.8908 24.4165 18.8485C24.3115 18.8061 24.2159 18.7435 24.1351 18.6642C24.0543 18.5849 23.99 18.4905 23.9457 18.3863C23.9014 18.2821 23.878 18.1702 23.877 18.057C23.877 17.585 24.267 17.201 24.747 17.201C25.227 17.201 25.617 17.585 25.617 18.057C25.616 18.1702 25.5926 18.2821 25.5483 18.3863C25.504 18.4905 25.4397 18.5849 25.3589 18.6642C25.2781 18.7435 25.1825 18.8061 25.0775 18.8485C24.9725 18.8908 24.8602 18.9121 24.747 18.911ZM26.646 20.781C26.4176 20.7826 26.1978 20.6934 26.0351 20.5331C25.8723 20.3728 25.7798 20.1544 25.778 19.926C25.778 19.454 26.167 19.07 26.646 19.07C27.125 19.07 27.514 19.454 27.514 19.926C27.5122 20.1544 27.4197 20.3728 27.2569 20.5331C27.0942 20.6934 26.8744 20.7826 26.646 20.781Z" fill="white"/>
</svg>

<svg xmlns="http://www.w3.org/2000/svg" width="40" height="40" viewBox="0 0 40 40"><g fill="none" fill-rule="evenodd"><circle cx="20" cy="20" r="20" fill="#F9818E"/><path fill="#FFF" fill-rule="nonzero" d="M25.057 15H14.944C12.212 15 10 17.03 10 19.885c0 2.857 2.212 4.936 4.944 4.936h10.113c2.733 0 4.943-2.08 4.943-4.936S27.79 15 25.057 15ZM17.5 20.388c0 .12-.108.237-.234.237h-1.552v1.569c0 .126-.138.217-.259.217H14.5c-.118 0-.213-.086-.213-.203v-1.583h-1.569c-.126 0-.217-.139-.217-.26v-.956c0-.117.086-.213.202-.213h1.584v-1.554c0-.125.082-.231.203-.231h.989c.12 0 .236.108.236.234v1.551h1.555c.125 0 .231.083.231.204v.988Zm5.347.393a.862.862 0 0 1-.869-.855c0-.472.39-.856.869-.856.481 0 .87.384.87.856 0 .471-.389.855-.87.855Zm1.9 1.866a.86.86 0 0 1-.87-.852.86.86 0 0 1 .87-.855c.48 0 .87.38.87.855a.86.86 0 0 1-.87.852Zm0-3.736a.862.862 0 0 1-.87-.854c0-.472.39-.856.87-.856s.87.384.87.856a.862.862 0 0 1-.87.854Zm1.899 1.87a.862.862 0 0 1-.868-.855c0-.472.389-.856.868-.856s.868.384.868.856a.862.862 0 0 1-.868.855Z"/></g></svg>
